src/assets/outline/Stacks.svg

<svg width="24" height="24" viewBox="0 0 24 24"  xmlns="http://www.w3.org/2000/svg">
<path d="M16.5 11.25H7.5C7.09 11.25 6.75 10.91 6.75 10.5C6.75 10.09 7.09 9.75 7.5 9.75H16.5C16.91 9.75 17.25 10.09 17.25 10.5C17.25 10.91 16.91 11.25 16.5 11.25Z" />
<path d="M11.8198 11.2503C11.5798 11.2503 11.3498 11.1403 11.2098 10.9303L8.38981 6.93029C8.14981 6.59029 8.2298 6.12029 8.5698 5.89029C8.9098 5.65029 9.37978 5.7303 9.60978 6.0703L12.4298 10.0703C12.6698 10.4103 12.5898 10.8803 12.2498 11.1103C12.1198 11.2103 11.9698 11.2503 11.8198 11.2503Z" />
<path d="M11.9998 11.2503C11.8498 11.2503 11.6998 11.2103 11.5698 11.1103C11.2298 10.8703 11.1498 10.4003 11.3898 10.0703L14.2098 6.0703C14.4498 5.7303 14.9198 5.65029 15.2498 5.89029C15.5898 6.13029 15.6698 6.60029 15.4298 6.93029L12.6098 10.9303C12.4698 11.1403 12.2298 11.2503 11.9998 11.2503Z" />
<path d="M16.5 14.25H7.5C7.09 14.25 6.75 13.91 6.75 13.5C6.75 13.09 7.09 12.75 7.5 12.75H16.5C16.91 12.75 17.25 13.09 17.25 13.5C17.25 13.91 16.91 14.25 16.5 14.25Z" />
<path d="M8.9998 18.2503C8.8498 18.2503 8.6998 18.2103 8.5698 18.1103C8.2298 17.8703 8.14981 17.4003 8.38981 17.0703L11.2098 13.0703C11.4498 12.7303 11.9198 12.6503 12.2498 12.8903C12.5898 13.1303 12.6698 13.6003 12.4298 13.9303L9.60978 17.9303C9.46978 18.1403 9.2298 18.2503 8.9998 18.2503Z" />
<path d="M14.8198 18.2503C14.5798 18.2503 14.3498 18.1403 14.2098 17.9303L11.3898 13.9303C11.1498 13.5903 11.2298 13.1203 11.5698 12.8903C11.9098 12.6503 12.3798 12.7303 12.6098 13.0703L15.4298 17.0703C15.6698 17.4103 15.5898 17.8803 15.2498 18.1103C15.1198 18.2103 14.9698 18.2503 14.8198 18.2503Z" />
<path d="M12 22.75C6.07 22.75 1.25 17.93 1.25 12C1.25 6.07 6.07 1.25 12 1.25C17.93 1.25 22.75 6.07 22.75 12C22.75 17.93 17.93 22.75 12 22.75ZM12 2.75C6.9 2.75 2.75 6.9 2.75 12C2.75 17.1 6.9 21.25 12 21.25C17.1 21.25 21.25 17.1 21.25 12C21.25 6.9 17.1 2.75 12 2.75Z" />
</svg>

<?xml version="1.0" encoding="UTF-8"?>
<svg width="24" height="24" viewBox="0 0 24 24" xmlns="http://www.w3.org/2000/svg">
 <path d="m16.5 11.25h-9c-0.41 0-0.75-0.34-0.75-0.75s0.34-0.75 0.75-0.75h9c0.41 0 0.75 0.34 0.75 0.75s-0.34 0.75-0.75 0.75z"/>
 <path d="m11.82 11.25c-0.24 0-0.47-0.11-0.61-0.32l-2.82-4c-0.24-0.34-0.16001-0.81 0.17999-1.04 0.34-0.24 0.80998-0.15999 1.04 0.18001l2.82 4c0.24 0.34 0.16 0.81-0.18 1.04-0.13 0.1-0.28 0.14-0.43 0.14z"/>
 <path d="m12 11.25c-0.15 0-0.3-0.04-0.43-0.14-0.34-0.24-0.42-0.71-0.18-1.04l2.82-4c0.24-0.34 0.71-0.42001 1.04-0.18001 0.34 0.24 0.42 0.71 0.18 1.04l-2.82 4c-0.14 0.21-0.38 0.32-0.61 0.32z"/>
 <path d="m16.5 14.25h-9c-0.41 0-0.75-0.34-0.75-0.75s0.34-0.75 0.75-0.75h9c0.41 0 0.75 0.34 0.75 0.75s-0.34 0.75-0.75 0.75z"/>
 <path d="m8.9998 18.25c-0.15 0-0.3-0.04-0.43-0.14-0.34-0.24-0.41999-0.71-0.17999-1.04l2.82-4c0.24-0.34 0.71-0.42 1.04-0.18 0.34 0.24 0.42 0.71 0.18 1.04l-2.82 4c-0.14 0.21-0.37998 0.32-0.60998 0.32z"/>
 <path d="m14.82 18.25c-0.24 0-0.47-0.11-0.61-0.32l-2.82-4c-0.24-0.34-0.16-0.81 0.18-1.04 0.34-0.24 0.81-0.16 1.04 0.18l2.82 4c0.24 0.34 0.16 0.81-0.18 1.04-0.13 0.1-0.28 0.14-0.43 0.14z"/>
 <path d="m12 22.75c-5.93 0-10.75-4.82-10.75-10.75s4.82-10.75 10.75-10.75 10.75 4.82 10.75 10.75-4.82 10.75-10.75 10.75zm0-20c-5.1 0-9.25 4.15-9.25 9.25s4.15 9.25 9.25 9.25 9.25-4.15 9.25-9.25-4.15-9.25-9.25-9.25z"/>
</svg>
